assets/icons/qvision/format_size.svg

<svg xmlns="http://www.w3.org/2000/svg" height="24" viewBox="0 0 24 24" width="24"><path d="M0 0h24v24H0z" fill="none"/><path d="M9 4v3h5v12h3V7h5V4H9zm-6 8h3v7h3v-7h3V9H3v3z"/></svg>

<svg width="24" height="24" viewBox="0 0 24 24" fill="none" xmlns="http://www.w3.org/2000/svg">
<g clip-path="url(#clip0_147_2631)">
<path d="M9 4V7H14V19H17V7H22V4H9ZM3 12H6V19H9V12H12V9H3V12Z" fill="#323232"/>
</g>
<defs>
<clipPath id="clip0_147_2631">
<rect width="24" height="24" fill="white"/>
</clipPath>
</defs>
</svg>
